; generated by Slic3r Prusa Edition 1.41.1+ on 2019-03-07 at 19:28:41

; 

; external perimeters extrusion width = 0.45mm
; perimeters extrusion width = 0.45mm
; infill extrusion width = 0.45mm
; solid infill extrusion width = 0.45mm
; top infill extrusion width = 0.40mm
; first layer extrusion width = 0.43mm

M107
M140 S70
M104 S225
G28; home all axes
M109 S225 ; heat up hot end to set temperature
M82 ; use absolute distances for extrusion
G90 ; use absolute coordinates
G92 E0 ; set E value to 0 at current position
G1 F2000 X0 Y0 Z20 ; Go up on Z before extruding
G1 F100 E35 ; 200mm/min speed of print head, 35mm filament to extrude
G1 F500 E32 ; Retract filament
G92 E0 ; set E value to 0 at current position
M190 S70
; Filament gcode
G21 ; set units to millimeters
G90 ; use absolute coordinates
M82 ; use absolute distances for extrusion
G92 E0
G1 E-2.00000 F4200.00000
G92 E0
G1 Z1.000 F6000.000
G1 X70.846 Y87.571
G1 Z0.360
G1 E2.00000 F4200.00000
G1 F900
G1 X71.973 Y86.773 E2.07332
G1 X73.342 Y85.984 E2.15721
G1 X74.517 Y85.444 E2.22587
G1 X76.059 Y84.902 E2.31262
G1 X77.275 Y84.596 E2.37922
G1 X78.640 Y84.373 E2.45265
G1 X80.181 Y84.265 E2.53465
G1 X119.674 Y84.264 E4.63151
G1 X122.160 Y84.498 E4.76411
G1 X123.614 Y84.824 E4.84325
G1 X124.957 Y85.258 E4.91815
G1 X126.194 Y85.781 E4.98947
G1 X127.565 Y86.517 E5.07209
G1 X129.539 Y87.923 E5.20078
G1 X130.440 Y88.737 E5.26525
G1 X131.459 Y89.831 E5.34459
G1 X132.322 Y90.947 E5.41954
G1 X132.941 Y91.899 E5.47981
G1 X134.051 Y94.132 E5.61225
G1 X134.534 Y95.517 E5.69009
G1 X134.889 Y96.958 E5.76892
G1 X135.094 Y98.306 E5.84129
G1 X135.185 Y99.810 E5.92127
G1 X135.024 Y102.252 E6.05123
G1 X134.808 Y103.430 E6.11484
G1 X134.395 Y104.927 E6.19727
G1 X133.910 Y106.208 E6.26998
G1 X133.268 Y107.529 E6.34798
G1 X132.514 Y108.773 E6.42520
G1 X131.755 Y109.809 E6.49340
G1 X130.678 Y111.025 E6.57965
G1 X129.781 Y111.871 E6.64513
G1 X127.828 Y113.321 E6.77430
G1 X126.512 Y114.064 E6.85452
G1 X125.237 Y114.635 E6.92868
G1 X123.956 Y115.078 E7.00068
G1 X122.427 Y115.453 E7.08424
G1 X121.190 Y115.641 E7.15067
G1 X119.748 Y115.734 E7.22738
G1 X80.494 Y115.738 E9.31157
G1 X78.263 Y115.578 E9.43034
G1 X76.358 Y115.183 E9.53361
G1 X74.186 Y114.416 E9.65592
G1 X72.377 Y113.479 E9.76410
G1 X70.658 Y112.280 E9.87537
G1 X69.260 Y111.015 E9.97546
G1 X67.882 Y109.405 E10.08801
G1 X66.800 Y107.745 E10.19319
G1 X65.827 Y105.691 E10.31388
G1 X65.279 Y103.999 E10.40831
G1 X64.989 Y102.662 E10.48095
G1 X64.799 Y101.073 E10.56592
G1 X64.764 Y99.800 E10.63349
G1 X64.876 Y98.115 E10.72318
G1 X65.115 Y96.689 E10.79993
G1 X65.517 Y95.186 E10.88253
G1 X66.111 Y93.625 E10.97123
G1 X66.696 Y92.443 E11.04124
G1 X67.509 Y91.118 E11.12378
G1 X68.354 Y89.993 E11.19848
G1 X69.524 Y88.722 E11.29021
G1 X70.801 Y87.610 E11.38013
G1 X71.031 Y87.880 F6000.000
G1 F900
G1 X72.267 Y87.006 E11.46048
G1 X73.542 Y86.281 E11.53835
G1 X74.999 Y85.634 E11.62301
G1 X76.230 Y85.222 E11.69193
G1 X77.579 Y84.897 E11.76558
G1 X78.998 Y84.691 E11.84173
G1 X80.201 Y84.620 E11.90572
G1 X119.673 Y84.619 E14.00148
G1 X122.092 Y84.846 E14.13049
G1 X123.522 Y85.166 E14.20827
G1 X124.834 Y85.590 E14.28147
G1 X126.041 Y86.101 E14.35107
G1 X127.387 Y86.824 E14.43217
G1 X129.312 Y88.195 E14.55770
G1 X130.191 Y88.990 E14.62060
G1 X131.189 Y90.061 E14.69835
G1 X132.636 Y92.080 E14.83024
G1 X133.721 Y94.261 E14.95957
G1 X134.194 Y95.619 E15.03589
G1 X134.541 Y97.023 E15.11272
G1 X134.732 Y98.250 E15.17861
G1 X134.830 Y99.803 E15.26127
G1 X134.674 Y102.198 E15.38870
G1 X134.463 Y103.346 E15.45068
G1 X134.058 Y104.817 E15.53165
G1 X133.585 Y106.067 E15.60265
G1 X132.957 Y107.359 E15.67890
G1 X132.218 Y108.577 E15.75454
G1 X131.478 Y109.588 E15.82104
G1 X130.422 Y110.780 E15.90560
G1 X129.545 Y111.606 E15.96955
G1 X127.641 Y113.020 E16.09548
G1 X126.351 Y113.747 E16.17411
G1 X125.098 Y114.308 E16.24702
G1 X123.854 Y114.739 E16.31691
G1 X122.357 Y115.105 E16.39872
G1 X121.152 Y115.288 E16.46343
G1 X119.740 Y115.380 E16.53858
G1 X80.491 Y115.383 E18.62249
G1 X78.318 Y115.227 E18.73815
G1 X76.455 Y114.842 E18.83915
G1 X74.327 Y114.090 E18.95899
G1 X72.558 Y113.174 E19.06475
G1 X70.877 Y112.001 E19.17361
G1 X69.515 Y110.768 E19.27113
G1 X68.169 Y109.196 E19.38101
G1 X67.111 Y107.573 E19.48390
G1 X66.155 Y105.554 E19.60249
G1 X65.619 Y103.897 E19.69499
G1 X65.337 Y102.588 E19.76608
G1 X65.150 Y101.013 E19.85031
G1 X65.125 Y99.529 E19.92909
G1 X65.233 Y98.118 E20.00423
G1 X65.483 Y96.665 E20.08249
G1 X65.855 Y95.292 E20.15804
G1 X66.443 Y93.753 E20.24550
G1 X67.249 Y92.187 E20.33903
G1 X67.966 Y91.082 E20.40894
G1 X68.967 Y89.820 E20.49448
G1 X69.984 Y88.774 E20.57195
G1 X70.986 Y87.919 E20.64185
; PURGING FINISHED
G1 F4800
G1 X72.267 Y87.006 E19.33422
G1 X72.886 Y86.654 E18.74185
G1 E18.64185 F4200.00000
G92 E0
G1 Z1.360 F6000.000
G1 X122.566 Y102.513
G1 Z0.360
G1 E2.00000 F4200.00000
G1 F900
G1 X116.312 Y102.513 E2.33206
G1 X115.898 Y101.824 E2.37472
G1 X115.667 Y101.278 E2.40621
G1 X115.519 Y100.701 E2.43783
G1 X115.458 Y100.109 E2.46945
G1 X115.487 Y99.514 E2.50107
G1 X115.603 Y98.930 E2.53269
G1 X115.805 Y98.370 E2.56431
G1 X116.086 Y97.851 E2.59565
G1 X116.331 Y97.487 E2.61895
G1 X122.585 Y97.487 E2.95101
G1 X122.999 Y98.176 E2.99366
G1 X123.231 Y98.722 E3.02515
G1 X123.379 Y99.299 E3.05677
G1 X123.439 Y99.891 E3.08839
G1 X123.411 Y100.486 E3.12001
G1 X123.294 Y101.070 E3.15163
G1 X123.092 Y101.630 E3.18325
G1 X122.811 Y102.149 E3.21459
G1 X122.600 Y102.463 E3.23469
G1 X122.377 Y102.158 F6000.000
G1 F900
G1 X116.513 Y102.158 E3.54608
G1 X116.215 Y101.663 E3.57676
G1 X116.004 Y101.164 E3.60551
G1 X115.869 Y100.639 E3.63432
G1 X115.814 Y100.099 E3.66312
G1 X115.840 Y99.557 E3.69192
G1 X115.946 Y99.025 E3.72072
G1 X116.130 Y98.515 E3.74952
G1 X116.390 Y98.035 E3.77853
G1 X116.520 Y97.842 E3.79089
G1 X122.385 Y97.842 E4.10228
G1 X122.682 Y98.337 E4.13296
G1 X122.894 Y98.836 E4.16171
G1 X123.028 Y99.361 E4.19051
G1 X123.083 Y99.901 E4.21931
G1 X123.058 Y100.443 E4.24811
G1 X122.952 Y100.974 E4.27691
G1 X122.768 Y101.485 E4.30571
G1 X122.508 Y101.965 E4.33472
G1 X122.411 Y102.108 E4.34389
G1 X122.308 Y102.552 F6000.000
G1 F4800
G1 X120.125 Y102.128 E2.44389
G1 E2.34389 F4200.00000
G92 E0
G1 Z1.360 F6000.000
G1 X130.325 Y108.218
G1 Z0.360
G1 E2.00000 F4200.00000
G1 F900
G1 X129.654 Y109.042 E2.05638
G1 X129.144 Y109.587 E2.09598
G1 X128.769 Y109.952 E2.12378
G1 X128.211 Y110.446 E2.16339
G1 X127.655 Y110.888 E2.20107
G1 X126.724 Y111.531 E2.26115
G1 X125.878 Y112.024 E2.31314
G1 X125.325 Y112.303 E2.34601
G1 X124.482 Y112.672 E2.39489
G1 X124.008 Y112.849 E2.42174
G1 X123.362 Y113.061 E2.45787
G1 X122.760 Y113.226 E2.49100
G1 X122.017 Y113.391 E2.53142
G1 X121.485 Y113.482 E2.56006
G1 X120.968 Y113.550 E2.58776
G1 X120.242 Y113.611 E2.62643
G1 X119.618 Y113.634 E2.65959
G1 X118.927 Y113.625 E2.69628
G1 X118.398 Y113.594 E2.72439
G1 X117.518 Y113.497 E2.77142
G1 X116.390 Y113.287 E2.83232
G1 X115.886 Y113.161 E2.85990
G1 X115.128 Y112.932 E2.90199
G1 X114.540 Y112.721 E2.93512
G1 X113.941 Y112.473 E2.96958
G1 X113.490 Y112.264 E2.99596
G1 X112.641 Y111.814 E3.04697
G1 X112.112 Y111.492 E3.07985
G1 X111.334 Y110.957 E3.12998
G1 X110.901 Y110.623 E3.15901
G1 X110.431 Y110.227 E3.19163
G1 X109.908 Y109.740 E3.22961
G1 X109.413 Y109.230 E3.26730
G1 X109.067 Y108.839 E3.29503
G1 X108.577 Y108.228 E3.33662
G1 X108.160 Y107.647 E3.37460
G1 X107.859 Y107.182 E3.40398
G1 X107.589 Y106.727 E3.43211
G1 X107.137 Y105.858 E3.48410
G1 X106.714 Y104.871 E3.54114
G1 X106.396 Y103.940 E3.59337
G1 X106.255 Y103.439 E3.62098
G1 X106.128 Y102.908 E3.64996
G1 X106.009 Y102.296 E3.68310
G1 X105.889 Y101.431 E3.72944
G1 X105.843 Y100.895 E3.75799
G1 X105.816 Y100.201 E3.79489
G1 X105.824 Y99.486 E3.83287
G1 X105.862 Y98.854 E3.86648
G1 X105.919 Y98.315 E3.89526
G1 X106.065 Y97.396 E3.94466
G1 X106.197 Y96.791 E3.97753
G1 X106.462 Y95.848 E4.02953
G1 X106.627 Y95.360 E4.05688
G1 X106.849 Y94.790 E4.08937
G1 X107.101 Y94.219 E4.12251
G1 X107.466 Y93.495 E4.16558
G1 X107.726 Y93.036 E4.19355
G1 X107.987 Y92.615 E4.21988
G1 X108.391 Y92.024 E4.25787
G1 X108.889 Y91.375 E4.30128
G1 X109.242 Y90.959 E4.33028
G1 X109.686 Y90.482 E4.36487
G1 X110.199 Y89.983 E4.40286
G1 X110.693 Y89.548 E4.43783
G1 X111.110 Y89.212 E4.46627
G1 X111.850 Y88.679 E4.51465
G1 X112.371 Y88.346 E4.54748
G1 X113.300 Y87.830 E4.60394
G1 X113.756 Y87.610 E4.63082
G1 X114.584 Y87.263 E4.67849
G1 X115.674 Y86.898 E4.73951
G1 X116.638 Y86.658 E4.79224
G1 X117.210 Y86.550 E4.82314
G1 X117.918 Y86.452 E4.86111
G1 X118.680 Y86.387 E4.90170
G1 X119.215 Y86.367 E4.93014
G1 X119.930 Y86.374 E4.96812
G1 X120.644 Y86.418 E5.00611
G1 X121.237 Y86.483 E5.03775
G1 X121.759 Y86.562 E5.06577
G1 X122.455 Y86.701 E5.10347
G1 X123.061 Y86.853 E5.13663
G1 X123.742 Y87.059 E5.17441
G1 X124.240 Y87.235 E5.20244
G1 X125.041 Y87.565 E5.24846
G1 X125.604 Y87.834 E5.28160
G1 X126.094 Y88.094 E5.31107
G1 X126.541 Y88.355 E5.33852
G1 X127.369 Y88.902 E5.39121
G1 X127.898 Y89.299 E5.42635
G1 X128.539 Y89.839 E5.47083
G1 X129.329 Y90.604 E5.52922
G1 X129.917 Y91.264 E5.57616
G1 X130.305 Y91.751 E5.60918
G1 X130.620 Y92.182 E5.63755
G1 X131.088 Y92.900 E5.68308
G1 X131.445 Y93.520 E5.72106
G1 X131.667 Y93.949 E5.74672
G1 X131.891 Y94.426 E5.77467
G1 X132.258 Y95.329 E5.82642
G1 X132.593 Y96.377 E5.88484
G1 X132.816 Y97.313 E5.93591
G1 X132.910 Y97.833 E5.96401
G1 X132.993 Y98.437 E5.99636
G1 X133.057 Y99.150 E6.03434
G1 X133.083 Y99.856 E6.07190
G1 X133.077 Y100.405 E6.10100
G1 X133.026 Y101.252 E6.14611
G1 X132.948 Y101.915 E6.18153
G1 X132.863 Y102.440 E6.20978
G1 X132.650 Y103.409 E6.26245
G1 X132.313 Y104.518 E6.32397
G1 X131.993 Y105.343 E6.37098
G1 X131.781 Y105.815 E6.39842
G1 X131.464 Y106.444 E6.43582
G1 X131.157 Y106.987 E6.46896
G1 X130.762 Y107.610 E6.50809
G1 X130.361 Y108.171 E6.54473
G1 X130.607 Y108.434 F6000.000
G1 F900
G1 X129.919 Y109.277 E6.60250
G1 X129.398 Y109.835 E6.64304
G1 X129.011 Y110.212 E6.67173
G1 X128.439 Y110.718 E6.71228
G1 X127.867 Y111.173 E6.75109
G1 X126.914 Y111.831 E6.81254
G1 X126.047 Y112.336 E6.86581
G1 X125.477 Y112.624 E6.89977
G1 X124.615 Y113.000 E6.94967
G1 X124.126 Y113.184 E6.97743
G1 X123.464 Y113.401 E7.01441
G1 X122.845 Y113.571 E7.04847
G1 X122.085 Y113.739 E7.08982
G1 X121.538 Y113.833 E7.11927
G1 X121.006 Y113.903 E7.14779
G1 X120.263 Y113.965 E7.18735
G1 X119.622 Y113.988 E7.22142
G1 X118.914 Y113.979 E7.25899
G1 X118.369 Y113.948 E7.28802
G1 X117.469 Y113.849 E7.33605
G1 X116.311 Y113.633 E7.39863
G1 X115.792 Y113.503 E7.42703
G1 X115.016 Y113.269 E7.47005
G1 X114.413 Y113.052 E7.50411
G1 X113.798 Y112.797 E7.53941
G1 X113.332 Y112.582 E7.56668
G1 X112.466 Y112.122 E7.61875
G1 X111.919 Y111.790 E7.65271
G1 X111.125 Y111.243 E7.70390
G1 X110.678 Y110.899 E7.73384
G1 X110.196 Y110.493 E7.76733
G1 X109.659 Y109.993 E7.80625
G1 X109.153 Y109.471 E7.84486
G1 X108.796 Y109.068 E7.87348
G1 X108.294 Y108.442 E7.91603
G1 X107.867 Y107.847 E7.95496
G1 X107.557 Y107.369 E7.98517
G1 X107.279 Y106.899 E8.01419
G1 X106.816 Y106.010 E8.06740
G1 X106.382 Y104.998 E8.12587
G1 X106.057 Y104.045 E8.17932
G1 X105.911 Y103.529 E8.20782
G1 X105.781 Y102.984 E8.23758
G1 X105.659 Y102.354 E8.27164
G1 X105.537 Y101.471 E8.31898
G1 X105.489 Y100.918 E8.34845
G1 X105.461 Y100.206 E8.38626
G1 X105.469 Y99.473 E8.42519
G1 X105.509 Y98.824 E8.45968
G1 X105.567 Y98.268 E8.48936
G1 X105.716 Y97.330 E8.53981
G1 X105.853 Y96.705 E8.57377
G1 X106.123 Y95.743 E8.62683
G1 X106.294 Y95.239 E8.65509
G1 X106.521 Y94.654 E8.68841
G1 X106.780 Y94.067 E8.72247
G1 X107.153 Y93.327 E8.76648
G1 X107.421 Y92.855 E8.79527
G1 X107.690 Y92.421 E8.82239
G1 X108.104 Y91.816 E8.86132
G1 X108.612 Y91.152 E8.90572
G1 X108.977 Y90.723 E8.93561
G1 X109.432 Y90.234 E8.97109
G1 X109.958 Y89.723 E9.01002
G1 X110.465 Y89.276 E9.04588
G1 X110.895 Y88.930 E9.07524
G1 X111.650 Y88.386 E9.12464
G1 X112.189 Y88.041 E9.15859
G1 X113.137 Y87.515 E9.21616
G1 X113.611 Y87.287 E9.24407
G1 X114.456 Y86.932 E9.29275
G1 X115.063 Y86.715 E9.32698
G1 X115.579 Y86.556 E9.35564
G1 X116.562 Y86.311 E9.40943
G1 X117.152 Y86.200 E9.44133
G1 X117.878 Y86.099 E9.48025
G1 X118.658 Y86.033 E9.52180
G1 X119.210 Y86.012 E9.55113
G1 X119.943 Y86.019 E9.59003
G1 X120.675 Y86.064 E9.62896
G1 X121.283 Y86.131 E9.66145
G1 X121.820 Y86.213 E9.69029
G1 X122.533 Y86.355 E9.72888
G1 X123.155 Y86.511 E9.76294
G1 X123.853 Y86.722 E9.80163
G1 X124.366 Y86.903 E9.83057
G1 X125.185 Y87.241 E9.87758
G1 X125.764 Y87.517 E9.91164
G1 X126.267 Y87.785 E9.94190
G1 X126.728 Y88.054 E9.97023
G1 X127.574 Y88.612 E10.02402
G1 X128.119 Y89.022 E10.06025
G1 X128.777 Y89.575 E10.10591
G1 X129.585 Y90.358 E10.16565
G1 X130.188 Y91.035 E10.21381
G1 X130.587 Y91.535 E10.24775
G1 X130.912 Y91.981 E10.27701
G1 X131.391 Y92.715 E10.32355
G1 X131.757 Y93.350 E10.36247
G1 X131.986 Y93.792 E10.38892
G1 X132.217 Y94.283 E10.41773
G1 X132.592 Y95.208 E10.47071
G1 X132.935 Y96.282 E10.53056
G1 X133.163 Y97.240 E10.58285
G1 X133.261 Y97.777 E10.61186
G1 X133.346 Y98.397 E10.64508
G1 X133.411 Y99.127 E10.68400
G1 X133.437 Y99.852 E10.72249
G1 X133.432 Y100.417 E10.75251
G1 X133.379 Y101.284 E10.79861
G1 X133.300 Y101.964 E10.83498
G1 X133.212 Y102.507 E10.86417
G1 X132.995 Y103.495 E10.91789
G1 X132.846 Y104.027 E10.94722
G1 X132.647 Y104.637 E10.98128
G1 X132.320 Y105.480 E11.02929
G1 X132.102 Y105.967 E11.05763
G1 X131.777 Y106.611 E11.09592
G1 X131.461 Y107.169 E11.12999
G1 X131.058 Y107.806 E11.17001
G1 X130.643 Y108.386 E11.20785
G1 X130.210 Y108.382 F6000.000
G1 X131.176 Y106.734
G1 F900
G1 X112.656 Y111.696 E12.22587
G1 F4800
G1 X114.864 Y111.105 E10.32587
G1 E10.22587 F4200.00000
G92 E0
G1 Z1.360 F6000.000
G1 X108.464 Y107.885
G1 Z0.360
G1 E2.00000 F4200.00000
G1 F900
G1 X132.907 Y101.335 E3.34362
G1 X132.973 Y100.017 F6000.000
G1 F900
G1 X119.607 Y86.650 E4.34730
G1 X118.697 Y86.666 E4.39561
G1 X117.949 Y86.730 E4.43545
G1 X117.255 Y86.826 E4.47267
G1 X116.698 Y86.931 E4.50278
G1 X115.752 Y87.167 E4.55450
G1 X114.683 Y87.524 E4.61438
G1 X114.019 Y87.803 E4.65263
G1 X131.647 Y105.432 E5.97629
G1 X131.218 Y106.312 E6.02828
G1 X130.917 Y106.843 E6.06070
G1 X130.530 Y107.455 E6.09912
G1 X129.896 Y108.319 E6.15605
G1 X129.445 Y108.856 E6.19329
G1 X128.904 Y109.430 E6.23514
G1 X122.267 Y102.792 E6.73356
G1 X116.154 Y102.792 E7.05811
G1 X115.649 Y101.952 E7.11020
G1 X115.401 Y101.368 E7.14384
G1 X115.243 Y100.751 E7.17768
G1 X115.178 Y100.117 E7.21152
G1 X115.209 Y99.480 E7.24536
G1 X115.333 Y98.855 E7.27920
G1 X115.549 Y98.255 E7.31305
G1 X115.847 Y97.706 E7.34622
G1 X116.183 Y97.208 E7.37813
G1 X116.682 Y97.208 E7.40462
G1 X110.020 Y90.546 E7.90480
G1 X109.886 Y90.677 E7.91479
G1 X109.451 Y91.145 E7.94868
G1 X109.106 Y91.551 E7.97697
G1 X108.617 Y92.188 E8.01961
G1 X108.221 Y92.767 E8.05686
G1 X107.712 Y93.627 E8.10989
G1 X107.267 Y94.534 E8.16354
G1 X124.912 Y112.179 E9.48847
G1 X124.377 Y112.413 E9.51949
G1 X123.916 Y112.586 E9.54563
G1 X123.281 Y112.793 E9.58107
G1 X122.693 Y112.955 E9.61348
G1 X121.963 Y113.117 E9.65318
G1 X120.938 Y113.272 E9.70822
G1 X120.225 Y113.332 E9.74619
G1 X119.615 Y113.354 E9.77863
G1 X119.343 Y113.351 E9.79305
G1 X105.926 Y99.934 E10.80047
G1 X105.989 Y98.679 F6000.000
G1 F900
G1 X130.445 Y92.126 E12.14476
G1 F4800
G1 X128.237 Y92.717 E10.24476
G1 E10.14476 F4200.00000
G92 E0
G1 Z1.360 F6000.000
G1 X132.513 Y96.506
G1 Z0.360
G1 E2.00000 F4200.00000
G1 F900
G1 X123.566 Y98.904 E2.49182
G1 F4800
G1 X125.773 Y98.312 E0.59182
G1 E0.49182 F4200.00000
G92 E0
G1 Z1.360 F6000.000
G1 X115.335 Y101.109
G1 Z0.360
G1 E2.00000 F4200.00000
G1 F900
G1 X106.386 Y103.507 E2.49192
G1 F4800
G1 X108.594 Y102.915 E0.59192
G1 E0.49192 F4200.00000
G92 E0
G1 Z1.360 F6000.000
G1 X107.710 Y93.283
G1 Z0.360
G1 E2.00000 F4200.00000
G1 F900
G1 X126.256 Y88.313 E3.01940
G1 F4800
G1 X124.048 Y88.905 E1.11940
G1 E1.01940 F4200.00000
G92 E0
G1 Z1.360 F6000.000
G1 X112.751 Y88.259
G1 Z0.360
G1 E2.00000 F4200.00000
G1 F900
G1 X107.837 Y106.597 E3.00804
G1 X108.391 Y107.489 E3.06378
G1 X108.800 Y108.059 E3.10101
G1 X109.281 Y108.659 E3.14185
G1 X109.618 Y109.040 E3.16888
