;START_OF_HEADER
;HEADER_VERSION:0.1
;FLAVOR:Griffin
;GENERATOR.NAME:Cura_SteamEngine
;GENERATOR.VERSION:3.2.1
;GENERATOR.BUILD_DATE:2018-02-14
;TARGET_MACHINE.NAME:Ultimaker 3
;EXTRUDER_TRAIN.0.INITIAL_TEMPERATURE:215
;EXTRUDER_TRAIN.0.MATERIAL.VOLUME_USED:947
;EXTRUDER_TRAIN.0.MATERIAL.GUID:506c9f0d-e3aa-4bd4-b2d2-23e2425b1aa9
;EXTRUDER_TRAIN.0.NOZZLE.DIAMETER:0.4
;EXTRUDER_TRAIN.0.NOZZLE.NAME:AA 0.4
;BUILD_PLATE.INITIAL_TEMPERATURE:60
;PRINT.TIME:1102
;PRINT.SIZE.MIN.X:9
;PRINT.SIZE.MIN.Y:6
;PRINT.SIZE.MIN.Z:0.4
;PRINT.SIZE.MAX.X:133.614
;PRINT.SIZE.MAX.Y:126.235
;PRINT.SIZE.MAX.Z:3
;END_OF_HEADER
;Generated with Cura_SteamEngine 3.2.1
T0
M82 ;absolute extrusion mode

G92 E0
M109 S215
G0 F15000 X9 Y6 Z2
G280
G1 F1500 E-6.5
;LAYER_COUNT:28
;LAYER:0
M107
M204 S625
M205 X6 Y6
G0 F4285.7 X118.983 Y101.324 Z0.4
M204 S500
M205 X5 Y5
;TYPE:WALL-INNER
G1 F1500 E0
G1 F1200 X127.87 Y103.402 E0.17168
G1 X129.846 Y102.073 E0.21647
G1 X130.025 Y101.973 E0.22033
G1 X130.178 Y101.921 E0.22337
G1 X130.325 Y101.897 E0.22617
G1 X130.488 Y101.9 E0.22924
G1 X130.632 Y101.928 E0.232
G1 X130.788 Y101.989 E0.23515
G1 X130.913 Y102.064 E0.23789
G1 X131.033 Y102.168 E0.24088
G1 X131.165 Y102.329 E0.24479
G1 X132.513 Y104.333 E0.29022
G1 X132.614 Y104.516 E0.29416
G1 X132.663 Y104.661 E0.29704
G1 X132.688 Y104.812 E0.29991
G1 X132.684 Y104.974 E0.30296
G1 X132.655 Y105.122 E0.3058
G1 X132.597 Y105.274 E0.30886
G1 X132.521 Y105.4 E0.31163
G1 X132.418 Y105.519 E0.31459
G1 X132.267 Y105.64 E0.31823
G1 X127.323 Y108.971 E0.43037
G1 X127.067 Y108.833 E0.43584
G1 X126.703 Y108.591 E0.44406
G1 X126.327 Y108.289 E0.45313
G1 X125.901 Y107.969 E0.46315
G1 X125.378 Y107.68 E0.47439
G1 X124.817 Y107.47 E0.48566
G1 X124.231 Y107.344 E0.49694
G1 X123.632 Y107.306 E0.50823
G1 X123.038 Y107.356 E0.51944
G1 X122.454 Y107.49 E0.53071
G1 X121.896 Y107.709 E0.54199
G1 X121.377 Y108.006 E0.55323
G1 X120.906 Y108.375 E0.56449
G1 X120.493 Y108.81 E0.57577
G1 X120.148 Y109.3 E0.58704
G1 X119.879 Y109.836 E0.59833
G1 X119.69 Y110.402 E0.60955
G1 X119.587 Y110.991 E0.6208
G1 X119.568 Y111.593 E0.63213
G1 X119.641 Y112.186 E0.64337
G1 X119.778 Y112.7 E0.65337
G1 X119.926 Y113.198 E0.66314
G1 X120 Y113.57 E0.67028
G1 X120.035 Y113.88 E0.67615
G1 X106.018 Y123.321 E0.99405
G1 X105.776 Y123.484 E0.99953
G1 X105.754 Y123.499 E1.00003
G1 X105.763 Y123.466
G1 X105.789 Y123.176 E1.00322
G1 X105.813 Y122.911 E1.00822
G1 X105.763 Y122.356 E1.01871
G1 X105.614 Y121.819 E1.02919
G1 X105.375 Y121.32 E1.0396
G1 X105.047 Y120.868 E1.0501
G1 X104.645 Y120.483 E1.06057
G1 X104.179 Y120.178 E1.07105
G1 X103.74 Y119.991 E1.08002
G1 X103.668 Y119.96 E1.0815
G1 X103.382 Y119.894 E1.08702
G1 X103.547 Y119.783 E1.08714
G1 X103.612 Y119.739 E1.08843
G1 X117.896 Y110.12 E1.41236
G1 X118.235 Y109.536 E1.42507
G1 X118.416 Y109.055 E1.43473
G1 X118.513 Y108.554 E1.44433
G1 X118.53 Y108.042 E1.45397
G1 X118.46 Y107.535 E1.4636
G1 X118.322 Y107.089 E1.47238
G1 X112.528 Y92.703 E1.76411
G1 X112.66 Y92.633 E1.76692
G1 X113.041 Y92.292 E1.77654
G1 X113.292 Y91.92 E1.78498
G1 X113.326 Y91.87 E1.78612
G1 X113.427 Y91.597 E1.79159
G1 X113.519 Y91.758 E1.79163
G1 X113.549 Y91.81 E1.79264
G1 X118.983 Y101.324 E1.99874
M204 S625
M205 X6 Y6
G0 F4285.7 X119.179 Y101.062
M204 S500
M205 X5 Y5
G1 F1200 X127.811 Y103.08 E2.16549
G1 X129.69 Y101.816 E2.20809
G1 X129.902 Y101.698 E2.21265
G1 X130.103 Y101.629 E2.21665
G1 X130.305 Y101.596 E2.2205
G1 X130.516 Y101.6 E2.22447
G1 X130.721 Y101.64 E2.2284
G1 X130.916 Y101.716 E2.23233
G1 X131.091 Y101.821 E2.23617
G1 X131.249 Y101.959 E2.24012
G1 X131.405 Y102.149 E2.24474
G1 X132.772 Y104.181 E2.29081
G1 X132.889 Y104.393 E2.29536
G1 X132.955 Y104.587 E2.29922
G1 X132.988 Y104.792 E2.30312
G1 X132.984 Y105.004 E2.30711
G1 X132.944 Y105.208 E2.31102
G1 X132.869 Y105.403 E2.31495
G1 X132.764 Y105.578 E2.31879
G1 X132.625 Y105.738 E2.32278
G1 X132.443 Y105.884 E2.32717
G1 X127.346 Y109.318 E2.44278
G1 X127.289 Y109.294 E2.44394
G1 X126.915 Y109.092 E2.45193
G1 X126.525 Y108.833 E2.46074
G1 X126.143 Y108.526 E2.46996
G1 X125.738 Y108.221 E2.4795
G1 X125.252 Y107.953 E2.48994
G1 X124.732 Y107.759 E2.50038
G1 X124.19 Y107.642 E2.51081
G1 X123.635 Y107.607 E2.52127
G1 X123.084 Y107.653 E2.53167
G1 X122.543 Y107.777 E2.54211
G1 X122.026 Y107.98 E2.55256
G1 X121.545 Y108.256 E2.56299
G1 X121.108 Y108.598 E2.57343
G1 X120.726 Y109.001 E2.58387
G1 X120.406 Y109.455 E2.59432
G1 X120.157 Y109.951 E2.60476
G1 X119.982 Y110.476 E2.61517
G1 X119.886 Y111.022 E2.6256
G1 X119.869 Y111.579 E2.63608
G1 X119.936 Y112.129 E2.6465
G1 X120.067 Y112.618 E2.65602
G1 X120.216 Y113.118 E2.66584
G1 X120.297 Y113.524 E2.67363
G1 X120.347 Y113.977 E2.6822
G1 X120.348 Y114.031 E2.68321
G1 X105.552 Y123.998 E3.01879
G1 X105.447 Y124.068 E3.02117
G1 X105.157 Y124.263 E3.02774
G1 X105.332 Y123.897 E3.03087
G1 X105.366 Y123.775 E3.0329
G1 X105.467 Y123.412 E3.03999
G1 X105.512 Y122.911 E3.04945
G1 X105.467 Y122.41 E3.05891
G1 X105.332 Y121.925 E3.06838
G1 X105.116 Y121.474 E3.07779
G1 X104.82 Y121.066 E3.08727
G1 X104.457 Y120.719 E3.09672
G1 X104.037 Y120.443 E3.10617
G1 X103.575 Y120.246 E3.11562
G1 X103.086 Y120.134 E3.12505
G1 X102.986 Y120.129 E3.12694
G1 X102.582 Y120.11 E3.13454
G1 X102.509 Y120.12 E3.13593
G1 X102.563 Y120.084
G1 X102.898 Y119.859 E3.14029
G1 X117.671 Y109.91 E3.47533
G1 X117.963 Y109.407 E3.48627
G1 X118.126 Y108.973 E3.49499
G1 X118.214 Y108.52 E3.50367
G1 X118.229 Y108.058 E3.51236
G1 X118.166 Y107.6 E3.52106
G1 X118.039 Y107.189 E3.52915
G1 X112.149 Y92.565 E3.82571
G1 X112.487 Y92.385 E3.83291
G1 X112.813 Y92.093 E3.84115
G1 X113.057 Y91.732 E3.84934
G1 X113.209 Y91.324 E3.85753
G1 X113.223 Y91.201 E3.85986
G1 X113.256 Y90.89 E3.86574
G1 X113.224 Y90.637 E3.87054
G1 X113.34 Y90.841
G1 X113.495 Y91.112 E3.87452
G1 X119.179 Y101.062 E4.09007
M204 S625
M205 X6 Y6
G0 F4285.7 X119.375 Y100.8
M204 S500
M205 X5 Y5
G1 F1200 X127.752 Y102.758 E4.2519
G1 X129.534 Y101.559 E4.2923
G1 X129.78 Y101.422 E4.29759
G1 X130.028 Y101.337 E4.30253
G1 X130.286 Y101.296 E4.30744
G1 X130.548 Y101.301 E4.31237
G1 X130.805 Y101.35 E4.31729
G1 X131.044 Y101.443 E4.32211
G1 X131.269 Y101.578 E4.32705
G1 X131.466 Y101.751 E4.33198
G1 X131.645 Y101.969 E4.33729
G1 X133.031 Y104.029 E4.38399
G1 X133.164 Y104.27 E4.38917
G1 X133.247 Y104.512 E4.39398
G1 X133.288 Y104.773 E4.39895
G1 X133.284 Y105.033 E4.40384
G1 X133.233 Y105.292 E4.40881
G1 X133.139 Y105.537 E4.41374
G1 X133.008 Y105.754 E4.41851
G1 X132.832 Y105.956 E4.42355
G1 X132.62 Y106.127 E4.42868
G1 X127.378 Y109.658 E4.54756
G1 X127.163 Y109.566 E4.55196
G1 X126.758 Y109.348 E4.56062
G1 X126.347 Y109.075 E4.5699
G1 X125.959 Y108.763 E4.57926
G1 X125.574 Y108.473 E4.58833
G1 X125.127 Y108.226 E4.59794
G1 X124.648 Y108.048 E4.60755
G1 X124.149 Y107.94 E4.61715
G1 X123.638 Y107.908 E4.62678
G1 X123.13 Y107.95 E4.63637
G1 X122.632 Y108.064 E4.64598
G1 X122.156 Y108.251 E4.6556
G1 X121.713 Y108.505 E4.66521
G1 X121.311 Y108.82 E4.67481
G1 X120.959 Y109.192 E4.68445
G1 X120.664 Y109.61 E4.69407
G1 X120.435 Y110.066 E4.70367
G1 X120.274 Y110.55 E4.71326
G1 X120.185 Y111.053 E4.72287
G1 X120.17 Y111.565 E4.73251
G1 X120.231 Y112.072 E4.74211
G1 X120.356 Y112.536 E4.75115
G1 X120.506 Y113.041 E4.76106
G1 X120.594 Y113.477 E4.76943
G1 X120.647 Y113.96 E4.77857
G1 X120.652 Y114.189 E4.78288
G1 X105.202 Y124.594 E5.13326
G1 X104.876 Y124.983 E5.14281
G1 X104.583 Y125.253 E5.1503
G1 X104.25 Y125.483 E5.15792
G1 X103.894 Y125.666 E5.16545
G1 X103.506 Y125.802 E5.17318
G1 X103.127 Y125.881 E5.18046
G1 X102.717 Y125.91 E5.1882
G1 X102.324 Y125.885 E5.1956
G1 X101.914 Y125.802 E5.20347
G1 X101.548 Y125.676 E5.21075
G1 X101.179 Y125.491 E5.21852
G1 X100.853 Y125.268 E5.22595
G1 X100.557 Y125 E5.23346
G1 X100.297 Y124.693 E5.24103
G1 X100.08 Y124.353 E5.24861
G1 X99.91 Y123.987 E5.2562
G1 X99.791 Y123.601 E5.2638
G1 X99.725 Y123.209 E5.27128
G1 X99.712 Y122.802 E5.27894
G1 X99.753 Y122.408 E5.28639
G1 X99.847 Y122.015 E5.29399
G1 X99.993 Y121.639 E5.30158
G1 X100.183 Y121.295 E5.30897
G1 X100.428 Y120.965 E5.3167
G1 X100.706 Y120.679 E5.3242
G1 X101.022 Y120.432 E5.33175
G1 X101.369 Y120.229 E5.33931
G1 X101.738 Y120.074 E5.34684
G1 X102.242 Y119.938 E5.35666
G1 X117.446 Y109.7 E5.70145
G1 X117.691 Y109.278 E5.71063
G1 X117.836 Y108.891 E5.7184
G1 X117.915 Y108.486 E5.72617
G1 X117.928 Y108.074 E5.73392
G1 X117.872 Y107.665 E5.74169
G1 X117.756 Y107.29 E5.74907
G1 X111.761 Y92.402 E6.05097
G1 X111.748 Y92.371 E6.05161
G1 X111.994 Y92.308 E6.05495
G1 X112.314 Y92.137 E6.06178
G1 X112.585 Y91.894 E6.06863
G1 X112.788 Y91.594 E6.07544
G1 X112.915 Y91.254 E6.08227
G1 X112.954 Y90.893 E6.0891
G1 X112.908 Y90.532 E6.09594
G1 X112.775 Y90.192 E6.10281
G1 X112.566 Y89.897 E6.10961
G1 X112.293 Y89.66 E6.11641
G1 X111.978 Y89.498 E6.12307
G1 X111.972 Y89.495 E6.1232
G1 X111.968 Y89.493 E6.12328
G1 X111.613 Y89.412 E6.13013
G1 X111.596 Y89.412 E6.13045
G1 X111.25 Y89.415 E6.13696
G1 X110.899 Y89.508 E6.14379
G1 X110.66 Y89.637 E6.1489
G1 X110.65 Y89.614
G1 X110.513 Y89.288 E6.15555
G1 X110.502 Y89.262 E6.15608
G1 X110.495 Y89.245 E6.15643
G1 X110.735 Y89.164 E6.15847
G1 X110.763 Y89.159 E6.15897
G1 X111.067 Y89.103 E6.16478
G1 X111.409 Y89.09 E6.17122
G1 X111.629 Y89.114 E6.17538
G1 X111.645 Y89.115 E6.17568
G1 X111.744 Y89.126 E6.17756
G1 X112.043 Y89.203 E6.18336
G1 X112.047 Y89.204 E6.18344
G1 X112.071 Y89.211 E6.18391
G1 X112.083 Y89.216 E6.18416
G1 X112.094 Y89.22 E6.18438
G1 X112.389 Y89.344 E6.1904
G1 X112.679 Y89.519 E6.19677
G1 X112.933 Y89.729 E6.20297
G1 X113.168 Y89.988 E6.20954
G1 X113.365 Y90.28 E6.21617
G1 X119.375 Y100.8 E6.44407
M204 S625
M205 X6 Y6
G0 F4285.7 X119.316 Y100.88
G0 X117.874 Y108.901
G0 X117.475 Y109.727
G0 X104.623 Y124.584
G0 X104.293 Y124.898
G0 X103.912 Y125.149
G0 X103.676 Y125.249
G0 X102.592 Y125.51
G0 X102.596 Y125.411
M204 S500
M205 X5 Y5
G1 F1200 X103.045 Y125.39 E6.45253
G1 X103.482 Y125.29 E6.46096
G1 X103.894 Y125.114 E6.46939
G1 X104.269 Y124.867 E6.47784
G1 X104.593 Y124.558 E6.48626
G1 X104.857 Y124.194 E6.49472
G1 X105.05 Y123.791 E6.50312
G1 X105.171 Y123.358 E6.51158
G1 X105.211 Y122.911 E6.52002
G1 X105.171 Y122.464 E6.52846
G1 X105.05 Y122.031 E6.53692
G1 X104.857 Y121.628 E6.54532
G1 X104.593 Y121.264 E6.55378
G1 X104.269 Y120.955 E6.5622
G1 X103.894 Y120.708 E6.57065
G1 X103.482 Y120.532 E6.57908
G1 X103.045 Y120.432 E6.58751
G1 X102.596 Y120.411 E6.59597
G1 X102.152 Y120.472 E6.6044
G1 X101.726 Y120.61 E6.61282
G1 X101.33 Y120.823 E6.62128
G1 X100.98 Y121.104 E6.62972
G1 X100.685 Y121.441 E6.63815
G1 X100.455 Y121.825 E6.64657
G1 X100.297 Y122.245 E6.65501
G1 X100.217 Y122.687 E6.66346
G1 X100.217 Y123.135 E6.67188
G1 X100.297 Y123.577 E6.68033
G1 X100.455 Y123.997 E6.68877
G1 X100.685 Y124.382 E6.69721
G1 X100.98 Y124.72 E6.70565
G1 X101.33 Y124.999 E6.71407
G1 X101.726 Y125.212 E6.72253
G1 X102.152 Y125.35 E6.73095
G1 X102.596 Y125.411 E6.73938
M204 S625
M205 X6 Y6
G0 F4285.7 X102.592 Y125.51
G0 X101.711 Y125.248
G0 X101.308 Y125.032
G0 X100.953 Y124.748
G0 X100.653 Y124.405
G0 X100.419 Y124.014
G0 X100.259 Y123.587
G0 X100.178 Y123.138
G0 X100.178 Y122.684
G0 X100.259 Y122.235
G0 X100.419 Y121.808
G0 X100.551 Y121.588
G0 X101.246 Y120.763
G0 X101.51 Y121.095
M204 S500
M205 X5 Y5
;TYPE:WALL-OUTER
G1 F1200 X101.206 Y121.339 E6.74793
G1 X100.949 Y121.633 E6.7565
G1 X100.749 Y121.967 E6.76505
G1 X100.612 Y122.332 E6.7736
G1 X100.542 Y122.716 E6.78217
G1 X100.542 Y123.106 E6.79073
G1 X100.612 Y123.49 E6.79929
G1 X100.749 Y123.855 E6.80785
G1 X100.949 Y124.19 E6.81641
G1 X101.206 Y124.484 E6.82498
G1 X101.51 Y124.727 E6.83352
G1 X101.854 Y124.912 E6.84209
G1 X102.225 Y125.032 E6.85065
G1 X102.611 Y125.085 E6.8592
G1 X103.001 Y125.067 E6.86777
G1 X103.381 Y124.98 E6.87633
G1 X103.74 Y124.827 E6.88489
G1 X104.066 Y124.612 E6.89346
G1 X104.347 Y124.343 E6.902
G1 X104.577 Y124.027 E6.91057
G1 X104.745 Y123.676 E6.91911
G1 X104.85 Y123.299 E6.9277
G1 X104.885 Y122.911 E6.93625
G1 X104.85 Y122.523 E6.9448
G1 X104.745 Y122.146 E6.95339
G1 X104.577 Y121.795 E6.96193
G1 X104.347 Y121.479 E6.97051
G1 X104.066 Y121.21 E6.97904
G1 X103.74 Y120.995 E6.98761
G1 X103.381 Y120.842 E6.99618
G1 X103.001 Y120.755 E7.00473
G1 X102.611 Y120.737 E7.0133
G1 X102.225 Y120.79 E7.02185
G1 X101.854 Y120.91 E7.03041
G1 X101.51 Y121.095 E7.03898
M204 S625
M205 X6 Y6
G0 F4285.7 X101.354 Y121.22
G0 X101.089 Y120.889
G0 X117.475 Y109.727
G0 X117.834 Y108.984
G0 X119.219 Y100.726
G0 X119.587 Y100.516
M204 S500
M205 X5 Y5
G1 F1200 X127.688 Y102.409 E7.22155
G1 X129.363 Y101.282 E7.26586
G1 X129.646 Y101.125 E7.27296
G1 X129.95 Y101.02 E7.28002
G1 X130.264 Y100.97 E7.28699
G1 X130.58 Y100.977 E7.29393
G1 X130.895 Y101.037 E7.30097
G1 X131.189 Y101.151 E7.30789
G1 X131.462 Y101.315 E7.31488
G1 X131.702 Y101.525 E7.32188
G1 X131.907 Y101.776 E7.32899
G1 X133.308 Y103.857 E7.38404
G1 X133.461 Y104.135 E7.39101
G1 X133.564 Y104.434 E7.39795
G1 X133.614 Y104.752 E7.40501
G1 X133.608 Y105.067 E7.41192
G1 X133.546 Y105.384 E7.41901
G1 X133.434 Y105.677 E7.4259
G1 X133.27 Y105.949 E7.43287
G1 X133.059 Y106.19 E7.4399
G1 X132.808 Y106.393 E7.44698
G1 X127.413 Y110.027 E7.58973
G1 X127.026 Y109.861 E7.59897
G1 X126.586 Y109.624 E7.60994
G1 X126.158 Y109.34 E7.62121
G1 X125.759 Y109.019 E7.63245
G1 X125.397 Y108.746 E7.6424
G1 X124.991 Y108.522 E7.65258
G1 X124.557 Y108.361 E7.66274
G1 X124.104 Y108.263 E7.67291
G1 X123.641 Y108.234 E7.68309
G1 X123.18 Y108.272 E7.69324
G1 X122.728 Y108.375 E7.70341
G1 X122.297 Y108.545 E7.71358
G1 X121.895 Y108.775 E7.72375
G1 X121.53 Y109.061 E7.73392
G1 X121.211 Y109.398 E7.74411
G1 X120.944 Y109.777 E7.75428
G1 X120.736 Y110.191 E7.76445
G1 X120.59 Y110.63 E7.7746
G1 X120.509 Y111.086 E7.78476
G1 X120.496 Y111.55 E7.79495
G1 X120.551 Y112.01 E7.80512
G1 X120.669 Y112.447 E7.81505
G1 X120.818 Y112.949 E7.82654
G1 X120.916 Y113.43 E7.83732
G1 X120.972 Y113.941 E7.8486
G1 X120.98 Y114.36 E7.85779
G1 X105.422 Y124.838 E8.26944
G1 X105.113 Y125.207 E8.28
G1 X104.786 Y125.507 E8.28974
G1 X104.418 Y125.762 E8.29956
G1 X104.018 Y125.967 E8.30943
G1 X103.598 Y126.115 E8.3192
G1 X103.171 Y126.203 E8.32877
G1 X102.72 Y126.235 E8.33869
G1 X102.276 Y126.207 E8.34845
G1 X101.833 Y126.118 E8.35837
G1 X101.416 Y125.974 E8.36805
G1 X101.021 Y125.776 E8.37775
G1 X100.652 Y125.524 E8.38755
G1 X100.323 Y125.227 E8.39728
G1 X100.034 Y124.885 E8.40711
G1 X99.794 Y124.509 E8.4169
G1 X99.605 Y124.102 E8.42675
G1 X99.476 Y123.683 E8.43637
G1 X99.401 Y123.237 E8.44629
G1 X99.386 Y122.794 E8.45602
G1 X99.432 Y122.351 E8.46579
G1 X99.536 Y121.917 E8.47559
G1 X99.696 Y121.505 E8.48529
G1 X99.912 Y121.114 E8.49509
G1 X100.18 Y120.753 E8.50496
G1 X100.486 Y120.439 E8.51458
G1 X100.842 Y120.16 E8.5245
G1 X101.224 Y119.937 E8.53421
G1 X101.632 Y119.766 E8.54392
G1 X102.105 Y119.638 E8.55467
G1 X117.202 Y109.472 E8.9541
G1 X117.396 Y109.138 E8.96258
G1 X117.522 Y108.802 E8.97045
G1 X117.591 Y108.45 E8.97832
G1 X117.602 Y108.091 E8.98621
G1 X117.554 Y107.735 E8.99409
G1 X117.45 Y107.399 E9.00181
G1 X111.335 Y92.211 E9.36112
G1 X111.324 Y92.184 E9.36176
G1 X111.29 Y92.101 E9.36373
G1 X111.295 Y92.082 E9.36416
G1 X111.307 Y92.075 E9.36447
G1 X111.6 Y92.073 E9.36759
G1 X111.629 Y92.066 E9.36821
G1 X111.876 Y92.003 E9.3738
G1 X112.126 Y91.869 E9.38003
G1 X112.338 Y91.679 E9.38627
G1 X112.497 Y91.444 E9.3925
G1 X112.596 Y91.178 E9.39873
G1 X112.627 Y90.896 E9.40496
G1 X112.591 Y90.613 E9.41122
G1 X112.487 Y90.348 E9.41746
G1 X112.323 Y90.117 E9.42368
G1 X112.109 Y89.931 E9.4299
